X:1
T:The Ragtime Goblin Man
T:The Ragtime Goblin Man
T:Harry Von Tilzer
T:Andrew B. Sterling
T:Copyright MCMXI by Harry Von Tilzer Music Pub. Co.
T:Copyright MCMXI by Harry Von Tilzer Music Pub. Co.
T:Copyright MCMXI by Harry Von Tilzer Music Pub. Co.
T:Copyright MCMXI by Harry Von Tilzer Music Pub. Co.
T:Copyright MCMXI by Harry Von Tilzer Music Pub. Co.
T:Copyright MCMXI by Harry Von Tilzer Music Pub. Co.
C:Harry Von Tilzer
Z:Andrew B. Sterling
Z:Copyright MCMXI by Harry Von Tilzer Music Pub. Co.
%%score 1 { ( 2 5 ) | ( 3 4 ) }
L:1/8
Q:1/4=115
M:2/4
K:Bb
V:1 treble nm="Voice"
V:2 treble nm="Piano"
V:5 treble 
V:3 bass 
V:4 bass 
V:1
"^Alleggro Moderato" z4 | z4 | z4 | z4 | z4 | z4 || z4 | z4 | z4 | z2 z F || d2 c2 | B B G G | %12
w: |||||||||A|rag time|gob lin man he|
w: |||||||||That|rag time|gob lin man was|
 F F G G | F F G G | F4 | c4 | B4- | B z z F | d2 c2 | B B G G | F F G G | F F G G | F4 | c4 | %24
w: comes a round and|soft ly hums a|rag|time|tune.|_ I|know he|fol lowed me, He'll|catch me sure, And|then there'll be a|rag|time|
w: mild, what was it|drove him wild? A|rag|time|moon.|_ On|dark nights|just look out He'll|catch you if you|sing a bout a|rag|time|
 B4- | B3 z | B c B c | B c B c | z F/ G/ _A/ G/ F | z F/ G/ _A/ G/ F | B c B c | B c B c | %32
w: swoon,|_|He's be side me,|hide me, hide me,|I can feel his breath|Oh, I'm scared to death,|He will take me,|shake me, make me,|
w: moon,|_|If he nabs you,|grabs you, jabs you,|You won't get a way|Cause you'll have to stay,|Then he'll bring you,|sting you, fling you,|
 z =A/ B/ c/ B/ A | d4 | d2 G2 | A/ ^G/ A D2 | z E E =E | F4 | z E E =E | F4- | F3 z | %41
w: Join his rag ge dy|band|Oh, oh,|where will I go,|That gob lin|man,|that gob lin|man.|_|
w: To his rag ge dy|band.|see, he,|wants to get me,|That gob lin|man,|that gob lin|man.|_|
"^Chorus." F2 F D/ E/ | F/ =E/ F/ D/- D2 | z d d d | d/ ^c/ d/ B/- B2 | F2 F D/ E/ | %46
w: Look out for the|gob l in man, *|That rag time|gob l in man, _|Look out for the|
w: |||||
 F/ =E/ F/ D/- D2 | z d d d | d/ ^c/ d/ =c/- c2 | B/ ^F/ G/ B/- B/ F/ G/ B/- | B/ ^F/ G/ B/- B2 | %51
w: hook in his hand. _|That great big|hook in his hand, _|There he is, there * he is. there|* he is there, *|
w: |||||
 d/ c/ B/ d/- d/ c/ B/ d/- | d/ c/ B/ d/- d2 | c d/ c/- c/ B/ G | c d/ c/- c/ B/ G | z c =B _B | %56
w: see his eyes, see _ his eyes, see|_ his eyes glare, *|Mis ter bug _ a boo|if he catch _ es you|He'll beat you,|
w: |||||
 A _A G _G | F2 F D/ E/ | F/ =E/ F/ D/- D2 | z d/ d/ d d | d/ ^c/ d/ B/- B2 | B2 B G/ A/ | %62
w: then he'll eat you,|Run, run, just as|fast as you can, *|From the rag time|gob l in man _|Hide, hide, or he'll|
w: ||||||
 B/ A/ B/ G/- G2 | z B/ B/ c ^c | d3 d | _G3 d | F3 e | =E F ^F G | ^G A B c/ c/ | d d d d | %70
w: give you a ride, _|In his rag time|van Look|out, look|out, Just|hear him shout Look|out, look out, For the|rag, rag, rag, rag|
w: ||||||||
 z d e/ d/ c |1 B4- | B z z2 :|2 B4- | B3 z |] %75
w: time gob l in|man.|_|man.|_|
w: |||||
V:2
!mf! [DF]2 [DF]D/E/ | [DF]/[^C=E]/[DF]/[B,D]/- [B,D]2 | z [Bd] [Ad][Gd] | %3
 [Fd][F_Ad] [=GAe]/[FAd]/[EAc] | [DB]F/G/ F/E/D/C/ | B, z [Bdfb] z ||!p! z{/=E} [A,F] z{/E}[A,F] | %7
 z{/=E} [A,F] z{/E}[A,F] | z{/=E} [A,F] z{/E}[A,F] | z{/=E} [A,F] z{/E}[A,F] || [DFd]2 [D^Fc]2 | %11
 [DGB][DGB] [B,EG][B,EG] | [B,F][B,F] [B,EG][B,EG] | [B,F][B,F] [B,=EG][B,EG] | %14
 [A,_EF]=E/F/- F/E/F | [_Ec]=B/c/- c/B/[Ec] | [DB]F =EF | [C_EA][CEG] [CE_G][CEF] | %18
 [DFd]2 [D^Fc]2 | [DGB][DGB] [B,EG][B,EG] | [B,F][B,F] [B,EG][B,EG] | [B,F][B,F] [B,=EG][B,EG] | %22
 [A,_EF]=E/F/- F/E/F | [_Ec]=B/c/- c/B/[Ec] |!<(! [DB]F/G/ F/E/D/C/!<)! | B, z [D_AB]2 | %26
 [GB][Gc] [GB][Gc] | [GB][Gc] [GB][Gc] | z F/G/ _A/G/F | z F/G/ _A/G/F | [GB][Gc] [GB][Gc] | %31
 [GB][Gc] [GB][Gc] | z =A/B/ c/B/A | [DGBd]4 | [Dd]2 G2 | [CA]/^G/A [CD]2 | z [B,D][CE][^C=E] | %37
 F4 | z [B,D][CE][^C=E] | F4- | F3 z |!p! [DF]2!f! [DF]D/E/ | [DF]/[^C=E]/[DF]/[B,D]/- [B,D]2 | %43
 z [Bd][Ad][Gd] | [Fd]/^c/d/[DB]/- [DB]2 | [DF]2 [DF]D/E/ | [DF]/[^C=E]/[DF]/[B,D]/- [B,D]2 | %47
 z [=EBd][EBd][EBd] | [Fd]/^c/d/[_E=c-]/ [Ec]2 | B/^F/G/B/- B/F/G/B/- | B/^F/G/[GB]/- [GB]2 | %51
 [Fd]/c/B/[Fd]/- [Fd]/c/B/[Fd]/- | [Fd]/c/B/[Fd]/- [Fd]2 | [=Ec]d/[Ec]/- [Ec]/B/[EG] | %54
 [=Ec]d/[Ec]/- [Ec]/B/[EG] | z [_EFc][DF=B][_D=E_B] | [C_EA][CE_A] [CEG][CE_G] | [DF]2 [DF]D/E/ | %58
 [DF]/[^C=E]/[DF]/[B,D]/- [B,D]2 | z [Bd][Ad][Gd] | [Fd]/^c/d/[DB]/- [DB]2 | [DB]2 [DB]G/A/ | %62
 [DB]/A/B/[B,G]/- [B,G]2 | z [GB]/[GB]/ [GBc][GA^c] | [^FAd]3 d | _G3 d | F3 d | =EF ^FG | %68
 ^GA Bc/c/ | [FBd][Bd][Ad][Gd] | z [F_Ad] [G=Ae]/[FAd]/[EAc] |1 [DFB]F/=E/ F/E/F/E/ | %72
 F[CEA] [CEG][CE_G] :|2 [DB]F/G/ F/E/D/C/ | B, z [Bdfb] z |] %75
V:3
 B,,[F,B,] F,,[F,B,] | B,,[F,B,] F,,F, | B,,[F,B,D] F,,[F,B,D] | %3
 [B,,,B,,][=B,,,=B,,] [C,,C,][F,,F,] | [B,,F,]F,/G,/ F,/E,/D,/C,/ | B,, z [B,,,B,,] z || %6
 [F,,F,]2 [E,,E,]2 | [D,,D,]2 [C,,C,]2 | [B,,,B,,]F, F,,F, | B,,F, F,,F, || [B,,B,]2 [A,,A,]2 | %11
 [G,,G,]2 [E,,E,]2 | [D,,D,]2 [E,,E,]2 | [D,,D,]2 [^C,,^C,]2 | =C,[_E,F,A,] F,,[E,F,A,] | %15
 C,[_E,F,A,] F,,[E,F,A,] | [B,,F,][F,,F,] [=E,,=E,][F,,F,] | [F,,F,][G,,G,] [^G,,^G,][A,,A,] | %18
 [B,,B,]2 [A,,A,]2 | [G,,G,]2 [E,,E,]2 | [D,,D,]2 [E,,E,]2 | [D,,D,]2 [^C,,^C,]2 | %22
 =C,[_E,F,A,] F,,[E,F,A,] | C,[_E,F,A,] F,,[E,F,A,] | [B,,F,]F,/G,/ F,/E,/D,/C,/ | %25
 B,, z [B,,,B,,]2 | E,[G,B,E] B,,[G,B,E] | E,[G,B,E] B,,[G,B,E] | F,[_A,B,D] B,,[A,B,D] | %29
 F,[_A,B,D] B,,[A,B,D] | E,[G,B,E] B,,[G,B,E] | E,[G,B,E] B,,[G,B,E] | %32
 [^F,,^F,][D,F,C] [D,,D,][D,F,C] | G,,4 | [G,,D,]2 [G,,D,]2 | G,,4 | B,,4 | F,,4 | B,,4 | F,,4- | %40
 F,,3 z | [B,,F,]2 [F,,E,]2 | B,,[F,B,] F,,[F,,F,] | [B,,B,][F,B,D] F,,[F,B,D] | %44
 B,,[F,B,D] [B,,F,][F,,F,] | [B,,F,]2 [F,,E,]2 | B,,[F,B,] [F,,F,][^F,,^F,] | %47
 [G,,G,][=E,B,C] [C,,C,][E,B,C] | C,[=E,B,C] F,,[_E,F,A,] | E,[G,B,E] B,,[G,B,E] | %50
 E,[G,B,E] B,,[G,B,E] | B,,[F,B,D] F,,[F,B,D] | B,,[F,B,D] F,,[F,B,D] | G,,[=E,B,C] C,[E,B,C] | %54
 G,,[=E,B,C] C,[E,B,C] | [F,,F,]4- | [F,,F,][^F,,^F,] [G,,G,][A,,A,] | [B,,F,]2 [F,,F,]2 | %58
 B,,[F,B,] F,,[F,,F,] | [B,,B,][F,B,D] F,,[F,B,D] | B,,[F,B,D] [B,,A,][A,,A,] | [G,,G,]2 [G,,G,]2 | %62
 [G,,G,][D,G,B,] [G,,G,][F,,F,] | [E,,E,]4 | [D,,D,]A,, D, z | [E,,E,][_G,B,E][G,B,E] z | %66
 [F,,F,][F,B,D][F,B,D] z | [^C,,^C,][D,,D,] [E,,E,][=E,,=E,] | [F,,F,][^F,,^F,] [G,,G,][A,,A,] | %69
 [B,,B,][F,B,D] [F,,F,][F,B,D] | [B,,B,][=B,,=B,] [C,C][F,,F,] |1 [B,,F,]F,/=E,/ F,/E,/F,/E,/ | %72
 F,[F,,F,] [G,,G,][A,,A,] :|2 [B,,F,]F,/G,/ F,/E,/D,/C,/ | B,, z [B,,,B,,] z |] %75
V:4
 x4 | x4 | x4 | x4 | x4 | x4 || x4 | x4 | x4 | x4 || x4 | x4 | x4 | x4 | x4 | x4 | x4 | x4 | x4 | %19
 x4 | x4 | x4 | x4 | x4 | x4 | x4 | x4 | x4 | x4 | x4 | x4 | x4 | x4 | z{/^C,} D,{/C,}D,{/C,}D, | %34
 x4 | =E,2 ^F,2 | z F,A,G, | z G, F,E, | z F,A,G, | z2 G,2 | F,2 E,2 | x4 | x4 | x4 | x4 | x4 | %46
 x4 | x4 | x4 | x4 | x4 | x4 | x4 | x4 | x4 | x4 | x4 | x4 | x4 | x4 | x4 | x4 | x4 | x4 | x4 | %65
 x4 | x4 | x4 | x4 | x4 | x4 |1 x4 | x4 :|2 x4 | x4 |] %75
V:5
 x4 | x4 | x4 | x4 | x4 | x4 || x4 | x4 | x4 | x4 || x4 | x4 | x4 | x4 | x4 | x4 | x4 | x4 | x4 | %19
 x4 | x4 | x4 | x4 | x4 | x4 | x4 | x4 | x4 | x4 | x4 | x4 | x4 | x4 | x4 | z [GB] z [B,D] | x4 | %36
 x4 | z [A,_E][A,D][A,C] | x4 | z2 [A,E]2 | [A,D]2 [A,C]2 | x4 | x4 | x4 | x4 | x4 | x4 | x4 | x4 | %49
 x4 | x4 | x4 | x4 | x4 | x4 | x4 | x4 | x4 | x4 | x4 | x4 | x4 | x4 | x4 | x4 | z d'_g z | %66
 z d'f z | x4 | x4 | x4 | x4 |1 x4 | x4 :|2 x4 | x4 |] %75

